X: 1
T: Eighth Dwarf, The
M: 9/8
L: 1/8
R: slip jig
K: Emin
|:B2e e2B AGA|B2e e2g f2d|B2e e2B AGA|B2E E2A F2D|
B2e e2B AGA|B2e e2g f2d|g2d gab a2f|g2e efg f2d:|
|:B2f f2e f3|B2f f2a gfe|B2f f2e f2d|e2B B2A G2A|
B2f f2e f3|B2f f2a gfd|e2B efg f2d|g2d gab a2f:|
